dist/svg/cards-due-tone.svg

<svg xmlns="http://www.w3.org/2000/svg" viewBox="0 0 24 24"><path d="M5.617 3.283q-.873.101-1.552.781a2.74 2.74 0 0 0-.696 1.116l-.109.32v13l.109.32c.151.445.362.783.695 1.116s.672.544 1.116.695l.32.108 3.3.021 3.3.02 1.34.308c1.541.354 1.706.378 2.141.312 1.022-.153 1.887-.848 2.215-1.78.046-.132.707-2.94 1.469-6.24 1.331-5.766 1.385-6.016 1.384-6.4 0-.456-.085-.784-.315-1.225-.299-.572-.836-1.06-1.402-1.276-.128-.049-1.284-.302-2.569-.563-1.286-.261-2.42-.501-2.52-.534a3 3 0 0 0-.463-.101c-.34-.048-7.347-.046-7.763.002m7.622 1.537c.156.033.333.085.393.116.156.083.386.336.495.544l.093.18v12.68l-.099.195c-.13.253-.467.559-.707.641-.168.057-.598.064-3.914.064s-3.746-.007-3.914-.064c-.24-.082-.577-.388-.707-.641l-.099-.195V5.66l.093-.18c.165-.317.477-.589.773-.674.081-.024 1.542-.04 3.721-.042 3.04-.003 3.631.005 3.872.056m-.539.496c-.384.177-.46.374-.459 1.193.001.684.04.852.244 1.039a.746.746 0 0 0 1.199-.248c.062-.134.074-.262.074-.8s-.012-.666-.074-.8c-.181-.392-.607-.558-.984-.384m4.335.264c.708.142 1.354.294 1.436.336.226.115.448.353.563.601.19.414.228.215-1.265 6.667-.989 4.274-1.39 5.941-1.466 6.09a1.24 1.24 0 0 1-1.108.638l-.211-.012.128-.146c.203-.23.402-.587.519-.934l.109-.32v-6.4c0-3.52-.013-6.485-.029-6.59s-.014-.19.004-.19.613.117 1.32.26M9.373 8.527c-.299.08-1.483.953-2.119 1.563-.839.806-1.336 1.685-1.333 2.358.005 1.015.854 1.792 1.959 1.792.266 0 .592-.057.81-.141.063-.025.07.003.07.274 0 .345.04.479.193.642a.77.77 0 0 0 1.094 0c.153-.163.193-.297.193-.642 0-.271.007-.299.07-.274.218.084.544.141.81.141 1.105 0 1.954-.777 1.959-1.792.003-.673-.494-1.552-1.333-2.358a13 13 0 0 0-1.501-1.206c-.542-.363-.662-.413-.872-.357m.467 1.307c.419.292.834.636 1.233 1.024.965.936 1.227 1.652.771 2.107-.429.429-1.229.329-1.898-.239-.363-.308-.53-.308-.893.001-.647.549-1.425.661-1.87.27-.499-.438-.238-1.186.744-2.139.598-.581 1.516-1.283 1.608-1.231.025.014.162.107.305.207M5.7 16.316c-.384.177-.46.374-.459 1.193.001.684.04.852.244 1.039a.746.746 0 0 0 1.199-.248c.062-.134.074-.262.074-.8s-.012-.666-.074-.8c-.181-.392-.607-.558-.984-.384" fill-rule="evenodd"/></svg>

<svg fill="none" xmlns="http://www.w3.org/2000/svg" viewBox="0 0 24 24"><path d="M5.617 3.283 C 5.034 3.351,4.519 3.610,4.065 4.064 C 3.732 4.396,3.521 4.735,3.369 5.180 L 3.260 5.500 3.260 12.000 L 3.260 18.500 3.369 18.820 C 3.520 19.265,3.731 19.603,4.064 19.936 C 4.397 20.269,4.736 20.480,5.180 20.631 L 5.500 20.739 8.800 20.760 L 12.100 20.780 13.440 21.088 C 14.981 21.442,15.146 21.466,15.581 21.400 C 16.603 21.247,17.468 20.552,17.796 19.620 C 17.842 19.488,18.503 16.680,19.265 13.380 C 20.596 7.614,20.650 7.364,20.649 6.980 C 20.649 6.524,20.564 6.196,20.334 5.755 C 20.035 5.183,19.498 4.695,18.932 4.479 C 18.804 4.430,17.648 4.177,16.363 3.916 C 15.077 3.655,13.943 3.415,13.843 3.382 C 13.742 3.348,13.534 3.303,13.380 3.281 C 13.040 3.233,6.033 3.235,5.617 3.283 M13.239 4.820 C 13.395 4.853,13.572 4.905,13.632 4.936 C 13.788 5.019,14.018 5.272,14.127 5.480 L 14.220 5.660 14.220 12.000 L 14.220 18.340 14.121 18.535 C 13.991 18.788,13.654 19.094,13.414 19.176 C 13.246 19.233,12.816 19.240,9.500 19.240 C 6.184 19.240,5.754 19.233,5.586 19.176 C 5.346 19.094,5.009 18.788,4.879 18.535 L 4.780 18.340 4.780 12.000 L 4.780 5.660 4.873 5.480 C 5.038 5.163,5.350 4.891,5.646 4.806 C 5.727 4.782,7.188 4.766,9.367 4.764 C 12.407 4.761,12.998 4.769,13.239 4.820 M12.700 5.316 C 12.316 5.493,12.240 5.690,12.241 6.509 C 12.242 7.193,12.281 7.361,12.485 7.548 C 12.871 7.903,13.463 7.781,13.684 7.300 C 13.746 7.166,13.758 7.038,13.758 6.500 C 13.758 5.962,13.746 5.834,13.684 5.700 C 13.503 5.308,13.077 5.142,12.700 5.316 M17.035 5.580 C 17.743 5.722,18.389 5.874,18.471 5.916 C 18.697 6.031,18.919 6.269,19.034 6.517 C 19.224 6.931,19.262 6.732,17.769 13.184 C 16.780 17.458,16.379 19.125,16.303 19.274 C 16.107 19.661,15.628 19.937,15.195 19.912 L 14.984 19.900 15.112 19.754 C 15.315 19.524,15.514 19.167,15.631 18.820 L 15.740 18.500 15.740 12.100 C 15.740 8.580,15.727 5.615,15.711 5.510 C 15.695 5.405,15.697 5.320,15.715 5.320 C 15.734 5.320,16.328 5.437,17.035 5.580 M9.373 8.527 C 9.074 8.607,7.890 9.480,7.254 10.090 C 6.415 10.896,5.918 11.775,5.921 12.448 C 5.926 13.463,6.775 14.240,7.880 14.240 C 8.146 14.240,8.472 14.183,8.690 14.099 C 8.753 14.074,8.760 14.102,8.760 14.373 C 8.760 14.718,8.800 14.852,8.953 15.015 C 9.237 15.319,9.763 15.319,10.047 15.015 C 10.200 14.852,10.240 14.718,10.240 14.373 C 10.240 14.102,10.247 14.074,10.310 14.099 C 10.528 14.183,10.854 14.240,11.120 14.240 C 12.225 14.240,13.074 13.463,13.079 12.448 C 13.082 11.775,12.585 10.896,11.746 10.090 C 11.346 9.707,10.714 9.199,10.245 8.884 C 9.703 8.521,9.583 8.471,9.373 8.527 M9.840 9.834 C 10.259 10.126,10.674 10.470,11.073 10.858 C 12.038 11.794,12.300 12.510,11.844 12.965 C 11.415 13.394,10.615 13.294,9.946 12.726 C 9.583 12.418,9.416 12.418,9.053 12.727 C 8.406 13.276,7.628 13.388,7.183 12.997 C 6.684 12.559,6.945 11.811,7.927 10.858 C 8.525 10.277,9.443 9.575,9.535 9.627 C 9.560 9.641,9.697 9.734,9.840 9.834 M5.700 16.316 C 5.316 16.493,5.240 16.690,5.241 17.509 C 5.242 18.193,5.281 18.361,5.485 18.548 C 5.871 18.903,6.463 18.781,6.684 18.300 C 6.746 18.166,6.758 18.038,6.758 17.500 C 6.758 16.962,6.746 16.834,6.684 16.700 C 6.503 16.308,6.077 16.142,5.700 16.316 " stroke="none" fill-rule="evenodd" fill="currentColor"/></svg>
